src/assets/images/map/markers/found/icon_185.svg

<?xml version="1.0" encoding="UTF-8" standalone="no"?>
<svg
   xmlns:dc="http://purl.org/dc/elements/1.1/"
   xmlns:cc="http://creativecommons.org/ns#"
   xmlns:rdf="http://www.w3.org/1999/02/22-rdf-syntax-ns#"
   xmlns:svg="http://www.w3.org/2000/svg"
   xmlns="http://www.w3.org/2000/svg"
   xmlns:sodipodi="http://sodipodi.sourceforge.net/DTD/sodipodi-0.dtd"
   xmlns:inkscape="http://www.inkscape.org/namespaces/inkscape"
   width="127pt"
   height="122pt"
   viewBox="0 0 127 122"
   version="1.1"
   id="svg5"
   sodipodi:docname="icon_185.svg"
   inkscape:version="0.92.1 r15371">
  <metadata
     id="metadata11">
    <rdf:RDF>
      <cc:Work
         rdf:about="">
        <dc:format>image/svg+xml</dc:format>
        <dc:type
           rdf:resource="http://purl.org/dc/dcmitype/StillImage" />
      </cc:Work>
    </rdf:RDF>
  </metadata>
  <defs
     id="defs9" />
  <sodipodi:namedview
     pagecolor="#ffffff"
     bordercolor="#666666"
     borderopacity="1"
     objecttolerance="10"
     gridtolerance="10"
     guidetolerance="10"
     inkscape:pageopacity="0"
     inkscape:pageshadow="2"
     inkscape:window-width="1366"
     inkscape:window-height="685"
     id="namedview7"
     showgrid="false"
     inkscape:zoom="1.4508197"
     inkscape:cx="-55.254237"
     inkscape:cy="81.333333"
     inkscape:window-x="0"
     inkscape:window-y="0"
     inkscape:window-maximized="1"
     inkscape:current-layer="surface1" />
  <g
     id="surface1">
    <path
       style="fill:#00ff00;fill-opacity:1;fill-rule:nonzero;stroke:none"
       d="m 46.292969,28.238281 h -7.308594 v 14.390625 h 7.308594 V 28.238281 m 12.183593,0 h -6.398437 v 14.390625 h 6.398437 V 28.238281 m -25.585937,0 h -6.699219 v 14.390625 h 6.699219 V 28.238281 m 71.570315,68.585938 h -1.82422 l -13.097658,0.917969 c -4.871093,1.226562 -7.308593,3.878902 -7.308593,7.964842 0,5.71485 6.800781,7.85547 20.406251,6.42969 9.33984,-1.02344 14.00781,-3.57422 14.00781,-7.65625 l -2.4375,-4.593751 c -1.62109,-1.222657 -3.7539,-2.144531 -6.39453,-2.753907 v 8.878908 h -3.35156 V 96.824219 M 73.09375,11.394531 107.8125,0.0664062 V 91.3125 c 6.29297,1.226562 10.76172,2.960938 13.40234,5.207031 3.85547,3.265625 4.26172,7.757809 1.21875,13.472659 -1.42187,2.65234 -5.17968,5.10156 -11.26953,7.34765 l -20.10156,3.67579 c -13.199219,0.61328 -24.160156,0.51171 -32.890625,-0.30469 -10.964844,-1.02344 -21.625,-3.47266 -31.980469,-7.35156 -11.980468,-4.28516 -19.1875,-9.89844 -21.625,-16.839849 -3.042968,-8.574219 3.351563,-16.023437 19.1875,-22.351562 15.027344,-6.125 29.644532,-6.738281 43.859375,-1.839844 8.121094,3.0625 14.820313,7.144531 20.097657,12.25 l 3.351562,2.449219 c 2.640625,1.835937 5.480469,2.960937 8.527344,3.367187 l 4.871096,0.308594 V 22.113281 L 73.09375,11.394531 m -3.65625,15.3125 v 1.53125 h -5.480469 v 14.390625 h 4.261719 v 10.105469 l -25.277344,-3.371094 -26.496094,3.0625 v -9.796875 h 4.265626 V 28.238281 h -5.484376 v -1.53125 H 13.402344 V 24.5625 L 42.332031,12.621094 71.265625,24.5625 v 2.144531 H 69.4375"
       id="path2"
       inkscape:connector-curvature="0" />
  </g>
</svg>

<?xml version="1.0" encoding="UTF-8"?>
<svg xmlns="http://www.w3.org/2000/svg" xmlns:xlink="http://www.w3.org/1999/xlink" width="127pt" height="122pt" viewBox="0 0 127 122" version="1.1">
<g id="surface1">
<path style=" stroke:none;fill-rule:nonzero;fill:rgb(100%,100%,100%);fill-opacity:1;" d="M 46.292969 28.238281 L 38.984375 28.238281 L 38.984375 42.628906 L 46.292969 42.628906 L 46.292969 28.238281 M 58.476562 28.238281 L 52.078125 28.238281 L 52.078125 42.628906 L 58.476562 42.628906 L 58.476562 28.238281 M 32.890625 28.238281 L 26.191406 28.238281 L 26.191406 42.628906 L 32.890625 42.628906 L 32.890625 28.238281 M 104.460938 96.824219 L 102.636719 96.824219 L 89.539062 97.742188 C 84.667969 98.96875 82.230469 101.621094 82.230469 105.707031 C 82.230469 111.421875 89.03125 113.5625 102.636719 112.136719 C 111.976562 111.113281 116.644531 108.5625 116.644531 104.480469 L 114.207031 99.886719 C 112.585938 98.664062 110.453125 97.742188 107.8125 97.132812 L 107.8125 106.011719 L 104.460938 106.011719 L 104.460938 96.824219 M 73.09375 11.394531 L 107.8125 0.0664062 L 107.8125 91.3125 C 114.105469 92.539062 118.574219 94.273438 121.214844 96.519531 C 125.070312 99.785156 125.476562 104.277344 122.433594 109.992188 C 121.011719 112.644531 117.253906 115.09375 111.164062 117.339844 L 91.0625 121.015625 C 77.863281 121.628906 66.902344 121.527344 58.171875 120.710938 C 47.207031 119.6875 36.546875 117.238281 26.191406 113.359375 C 14.210938 109.074219 7.003906 103.460938 4.566406 96.519531 C 1.523438 87.945312 7.917969 80.496094 23.753906 74.167969 C 38.78125 68.042969 53.398438 67.429688 67.613281 72.328125 C 75.734375 75.390625 82.433594 79.472656 87.710938 84.578125 L 91.0625 87.027344 C 93.703125 88.863281 96.542969 89.988281 99.589844 90.394531 L 104.460938 90.703125 L 104.460938 22.113281 L 73.09375 11.394531 M 69.4375 26.707031 L 69.4375 28.238281 L 63.957031 28.238281 L 63.957031 42.628906 L 68.21875 42.628906 L 68.21875 52.734375 L 42.941406 49.363281 L 16.445312 52.425781 L 16.445312 42.628906 L 20.710938 42.628906 L 20.710938 28.238281 L 15.226562 28.238281 L 15.226562 26.707031 L 13.402344 26.707031 L 13.402344 24.5625 L 42.332031 12.621094 L 71.265625 24.5625 L 71.265625 26.707031 L 69.4375 26.707031 "/>
</g>
</svg>
